images/section-about-icons/about_icon_2.svg

<svg width="170" height="170" viewBox="0 0 170 170" fill="none" xmlns="http://www.w3.org/2000/svg">
<path d="M110.573 62C112.543 62 114.432 62.7786 115.825 64.1645C117.218 65.5505 118 67.4302 118 69.3902V100.61C118 102.57 117.218 104.45 115.825 105.835C114.432 107.221 112.543 108 110.573 108H59.427C58.4517 108 57.4859 107.809 56.5848 107.437C55.6838 107.066 54.865 106.522 54.1754 105.835C53.4858 105.149 52.9387 104.335 52.5655 103.438C52.1922 102.541 52.0001 101.58 52.0001 100.61V69.3902C52.0001 67.4302 52.7826 65.5505 54.1754 64.1645C55.5682 62.7786 57.4573 62 59.427 62H110.573V62ZM110.573 66.9268H59.427C58.7704 66.9268 58.1407 67.1863 57.6765 67.6483C57.2122 68.1103 56.9514 68.7369 56.9514 69.3902V100.61C56.9514 101.97 58.0604 103.073 59.427 103.073H110.573C111.23 103.073 111.86 102.814 112.324 102.352C112.788 101.89 113.049 101.263 113.049 100.61V69.3902C113.049 68.7369 112.788 68.1103 112.324 67.6483C111.86 67.1863 111.23 66.9268 110.573 66.9268V66.9268ZM67.679 93.2031H102.338C102.965 93.2033 103.569 93.4404 104.027 93.8665C104.485 94.2926 104.764 94.876 104.807 95.4986C104.85 96.1213 104.653 96.737 104.257 97.2211C103.862 97.7053 103.296 98.0219 102.674 98.107L102.338 98.13H67.679C67.0518 98.1298 66.448 97.8927 65.9897 97.4666C65.5314 97.0405 65.2527 96.4571 65.2099 95.8345C65.1672 95.2118 65.3636 94.5961 65.7594 94.112C66.1552 93.6278 66.721 93.3112 67.3424 93.2261L67.679 93.2031H102.338H67.679V93.2031ZM99.8621 81.7072C100.738 81.7072 101.577 82.0533 102.196 82.6693C102.815 83.2852 103.163 84.1207 103.163 84.9918C103.163 85.8629 102.815 86.6983 102.196 87.3143C101.577 87.9303 100.738 88.2763 99.8621 88.2763C98.9867 88.2763 98.1471 87.9303 97.5281 87.3143C96.909 86.6983 96.5613 85.8629 96.5613 84.9918C96.5613 84.1207 96.909 83.2852 97.5281 82.6693C98.1471 82.0533 98.9867 81.7072 99.8621 81.7072ZM80.0736 81.7072C80.9491 81.7072 81.7887 82.0533 82.4077 82.6693C83.0267 83.2852 83.3745 84.1207 83.3745 84.9918C83.3745 85.8629 83.0267 86.6983 82.4077 87.3143C81.7887 87.9303 80.9491 88.2763 80.0736 88.2763C79.1982 88.2763 78.3586 87.9303 77.7396 87.3143C77.1206 86.6983 76.7728 85.8629 76.7728 84.9918C76.7728 84.1207 77.1206 83.2852 77.7396 82.6693C78.3586 82.0533 79.1982 81.7072 80.0736 81.7072V81.7072ZM70.1712 81.7072C71.0466 81.7072 71.8862 82.0533 72.5052 82.6693C73.1242 83.2852 73.472 84.1207 73.472 84.9918C73.472 85.8629 73.1242 86.6983 72.5052 87.3143C71.8862 87.9303 71.0466 88.2763 70.1712 88.2763C69.2957 88.2763 68.4562 87.9303 67.8371 87.3143C67.2181 86.6983 66.8703 85.8629 66.8703 84.9918C66.8703 84.1207 67.2181 83.2852 67.8371 82.6693C68.4562 82.0533 69.2957 81.7072 70.1712 81.7072ZM89.9761 81.7072C90.8515 81.7072 91.6911 82.0533 92.3102 82.6693C92.9292 83.2852 93.2769 84.1207 93.2769 84.9918C93.2769 85.8629 92.9292 86.6983 92.3102 87.3143C91.6911 87.9303 90.8515 88.2763 89.9761 88.2763C89.1007 88.2763 88.2611 87.9303 87.6421 87.3143C87.0231 86.6983 86.6753 85.8629 86.6753 84.9918C86.6753 84.1207 87.0231 83.2852 87.6421 82.6693C88.2611 82.0533 89.1007 81.7072 89.9761 81.7072V81.7072ZM65.2034 71.8536C66.0789 71.8536 66.9184 72.1997 67.5375 72.8156C68.1565 73.4316 68.5042 74.2671 68.5042 75.1382C68.5042 76.0093 68.1565 76.8447 67.5375 77.4607C66.9184 78.0767 66.0789 78.4227 65.2034 78.4227C64.328 78.4227 63.4884 78.0767 62.8694 77.4607C62.2504 76.8447 61.9026 76.0093 61.9026 75.1382C61.9026 74.2671 62.2504 73.4316 62.8694 72.8156C63.4884 72.1997 64.328 71.8536 65.2034 71.8536ZM75.0894 71.8536C75.9648 71.8536 76.8044 72.1997 77.4234 72.8156C78.0425 73.4316 78.3902 74.2671 78.3902 75.1382C78.3902 76.0093 78.0425 76.8447 77.4234 77.4607C76.8044 78.0767 75.9648 78.4227 75.0894 78.4227C74.214 78.4227 73.3744 78.0767 72.7554 77.4607C72.1363 76.8447 71.7886 76.0093 71.7886 75.1382C71.7886 74.2671 72.1363 73.4316 72.7554 72.8156C73.3744 72.1997 74.214 71.8536 75.0894 71.8536V71.8536ZM84.9919 71.8536C85.8673 71.8536 86.7069 72.1997 87.3259 72.8156C87.9449 73.4316 88.2927 74.2671 88.2927 75.1382C88.2927 76.0093 87.9449 76.8447 87.3259 77.4607C86.7069 78.0767 85.8673 78.4227 84.9919 78.4227C84.1164 78.4227 83.2769 78.0767 82.6578 77.4607C82.0388 76.8447 81.691 76.0093 81.691 75.1382C81.691 74.2671 82.0388 73.4316 82.6578 72.8156C83.2769 72.1997 84.1164 71.8536 84.9919 71.8536V71.8536ZM94.8943 71.8536C95.7698 71.8536 96.6094 72.1997 97.2284 72.8156C97.8474 73.4316 98.1952 74.2671 98.1952 75.1382C98.1952 76.0093 97.8474 76.8447 97.2284 77.4607C96.6094 78.0767 95.7698 78.4227 94.8943 78.4227C94.0189 78.4227 93.1793 78.0767 92.5603 77.4607C91.9413 76.8447 91.5935 76.0093 91.5935 75.1382C91.5935 74.2671 91.9413 73.4316 92.5603 72.8156C93.1793 72.1997 94.0189 71.8536 94.8943 71.8536V71.8536ZM104.797 71.8536C105.672 71.8536 106.512 72.1997 107.131 72.8156C107.75 73.4316 108.098 74.2671 108.098 75.1382C108.098 76.0093 107.75 76.8447 107.131 77.4607C106.512 78.0767 105.672 78.4227 104.797 78.4227C103.921 78.4227 103.082 78.0767 102.463 77.4607C101.844 76.8447 101.496 76.0093 101.496 75.1382C101.496 74.2671 101.844 73.4316 102.463 72.8156C103.082 72.1997 103.921 71.8536 104.797 71.8536Z" fill="#EC7979"/>
<circle cx="85.0001" cy="85" r="45.5" stroke="#EC7979"/>
</svg>

<svg width="170" height="170" fill="none" xmlns="http://www.w3.org/2000/svg"><path d="M110.573 62c1.97 0 3.859.779 5.252 2.165A7.37 7.37 0 0 1 118 69.39v31.22c0 1.96-.782 3.84-2.175 5.225a7.447 7.447 0 0 1-5.252 2.165H59.427a7.448 7.448 0 0 1-5.252-2.165A7.379 7.379 0 0 1 52 100.61V69.39c0-1.96.783-3.84 2.175-5.225A7.446 7.446 0 0 1 59.427 62h51.146zm0 4.927H59.427c-.657 0-1.286.26-1.75.721a2.457 2.457 0 0 0-.726 1.742v31.22a2.47 2.47 0 0 0 2.476 2.463h51.146c.657 0 1.287-.259 1.751-.721a2.46 2.46 0 0 0 .725-1.742V69.39c0-.653-.261-1.28-.725-1.742a2.482 2.482 0 0 0-1.751-.721zM67.679 93.203h34.659c.627 0 1.231.237 1.689.663a2.454 2.454 0 0 1 .23 3.355c-.395.484-.961.8-1.583.886l-.336.023H67.679a2.482 2.482 0 0 1-1.69-.663 2.459 2.459 0 0 1-.23-3.355c.396-.484.962-.8 1.583-.886l.337-.023h34.659-34.659zm32.183-11.496c.876 0 1.715.346 2.334.962a3.277 3.277 0 0 1 0 4.645 3.309 3.309 0 0 1-4.668 0 3.276 3.276 0 0 1 0-4.645 3.309 3.309 0 0 1 2.334-.962zm-19.788 0a3.31 3.31 0 0 1 2.334.962 3.276 3.276 0 0 1 0 4.645 3.309 3.309 0 0 1-4.668 0 3.276 3.276 0 0 1 0-4.645 3.309 3.309 0 0 1 2.334-.962zm-9.903 0c.876 0 1.715.346 2.334.962a3.276 3.276 0 0 1 0 4.645 3.309 3.309 0 0 1-4.668 0 3.276 3.276 0 0 1 0-4.645 3.31 3.31 0 0 1 2.334-.962zm19.805 0a3.31 3.31 0 0 1 2.334.962 3.276 3.276 0 0 1 0 4.645 3.31 3.31 0 0 1-4.668 0 3.276 3.276 0 0 1 0-4.645 3.309 3.309 0 0 1 2.334-.962zm-24.773-9.853a3.31 3.31 0 0 1 2.334.962 3.277 3.277 0 0 1 0 4.645 3.31 3.31 0 0 1-4.668 0 3.276 3.276 0 0 1 0-4.645 3.31 3.31 0 0 1 2.334-.962zm9.886 0a3.31 3.31 0 0 1 2.334.962 3.276 3.276 0 0 1 0 4.645 3.309 3.309 0 0 1-4.668 0 3.276 3.276 0 0 1 0-4.645 3.31 3.31 0 0 1 2.334-.962zm9.903 0a3.31 3.31 0 0 1 2.334.962 3.277 3.277 0 0 1 0 4.645 3.309 3.309 0 0 1-4.668 0 3.276 3.276 0 0 1 0-4.645 3.31 3.31 0 0 1 2.334-.962zm9.902 0a3.31 3.31 0 0 1 2.334.962 3.277 3.277 0 0 1 0 4.645 3.309 3.309 0 0 1-4.668 0 3.276 3.276 0 0 1 0-4.645 3.31 3.31 0 0 1 2.334-.962zm9.903 0a3.31 3.31 0 0 1 2.334.962c.619.616.967 1.451.967 2.322s-.348 1.707-.967 2.323a3.31 3.31 0 0 1-4.668 0 3.277 3.277 0 0 1 0-4.645 3.308 3.308 0 0 1 2.334-.962z" fill="#EC7979"/><circle cx="85" cy="85" r="45.5" stroke="#EC7979"/></svg>
